X: 31558
T: Padraig's Lark In The Morning
R: jig
M: 6/8
K: Dmajor
d2B|:ABA DFA|DFA Bcd|ABA D2e|fed Bcd|
ABA DFA|DFA B2A|dcd efg|1 fdc dcB:|2 fdc d2e|
|:fdd fdd|efe ABA|fdd fdd|ecA A2g|
faf gfe|fed cBA|dcd efg|1 fdc d2e:|2 fdc dcB|

